X:1
T:Title
%%score { ( 1 3 ) | 2 }
L:1/8
M:6/8
K:Eb
V:1 treble nm="Grand Piano"
V:3 treble 
V:2 bass 
V:1
 z3 z2[Q:1/4=100] B, | EGB [Ec][Ee][Ec] | B3 G2 E | G>GG [=A,EG][A,EF][A,E] | [DF]6 | %5
 EGB [Ec][Ee][Ec] | B3 E2 F | G>AG [A,DF][B,DG][A,DF] |[M:5/8] [G,E]-[G,E]- [G,E]3 |[M:1/8] [EGB] | %10
[M:3/4] [Ge]4 z2 | [GB]>[Ac] [GB][GB] GE | [DF]4 z2 | [FA][EG] [DF] [EG]2 [EB] | [Ge]4 z2 | %15
 fe c[Ac] [GB][EG] | [DF]4 z2 | %17
 [DB][Q:1/4=88][DA] [DF] E3[Q:1/4=98][Q:1/4=97][Q:1/4=95][Q:1/4=94][Q:1/4=92][Q:1/4=91][Q:1/4=89][Q:1/4=86][Q:1/4=84][Q:1/4=83][Q:1/4=81][Q:1/4=80][Q:1/4=78][Q:1/4=77] |] %18
V:2
 z3 z2 [E,G,] | [E,G,B,][E,B,E][E,G,E] [A,,A,][A,,C][A,,A,] | [E,G,E]3 [E,B,E]2 [E,G,] | %3
 [E,B,E]>[E,B,E][E,B,E] C,C,C, | B,,2 B,, B,,2 [B,,A,] | %5
 [E,G,B,][E,B,E][E,G,E] [A,,A,][A,,C][A,,A,] | [E,G,E]3 [G,B,]2 [A,CE] | %7
 [B,E]>[B,E][B,E] B,,B,,B,, |[M:5/8] E,-E,- E,3 |[M:1/8] E, |[M:3/4] [E,B,]>E, E,E, [E,E][E,E] | %11
 [E,E]>[E,E] [E,E][E,E] [E,B,E][E,G,] | [B,,B,]B,, B,,B,, [B,,B,][B,,B,] | %13
 [B,,B,][B,,B,] [B,,B,] [E,B,]2 [E,G,] | [E,B,]>E, E,E, [E,B,][E,B,] | %15
 [A,CA][A,CA] [A,EA][K:bass][E,E] [E,E][E,B,] | [B,,B,]>B,, B,,B,, [B,,B,][B,,B,] | %17
 [B,,F,][B,,F,] [B,,A,] [E,G,]3 |] %18
V:3
 x6 | x6 | x6 | x6 | B,2 B, B,2 B, | x6 | x6 | x6 |[M:5/8] x5 |[M:1/8] x | %10
[M:3/4] z z/ B,/ B,B, [Bd][Ac] | x6 | z B, B,B, [EG][FA] | x6 | z z/ B,/ B,B, [Gd][Ge] | x6 | %16
 z z/ B,/ B,B, [_D=E][=DF] | x6 |] %18

